svg/fluentui-system-icons/ic_fluent_lightbulb_circle_24_filled.svg

<svg width="24" height="24" viewBox="0 0 24 24" fill="none" xmlns="http://www.w3.org/2000/svg">
<path d="M12 2C17.5228 2 22 6.47715 22 12C22 17.5228 17.5228 22 12 22C6.47715 22 2 17.5228 2 12C2 6.47715 6.47715 2 12 2ZM14.481 16.9999H9.519L9.62209 17.4542L9.66511 17.6064L9.72182 17.7486C10.0101 18.3949 10.6239 18.7981 11.3091 18.7981H12.6909L12.8466 18.7904L12.9979 18.7671L13.1441 18.7324C13.7664 18.5582 14.2343 18.0764 14.3774 17.4565L14.481 16.9999ZM12 5.20192C9.23858 5.20192 7 7.4405 7 10.2019L7.00753 10.4733L7.02868 10.7289L7.06227 10.981C7.24767 12.1494 7.83148 13.1957 8.70145 13.9593L8.856 14.088L9.177 15.4999H14.821L15.141 14.09L15.3039 13.9535C16.314 13.0589 16.9252 11.8104 16.9936 10.4569L17 10.2019C17 7.4405 14.7614 5.20192 12 5.20192Z" fill="#212121"/>
</svg>

<svg xmlns="http://www.w3.org/2000/svg" width="24" height="24"><path d="M12 2c5.523 0 10 4.477 10 10s-4.477 10-10 10S2 17.523 2 12 6.477 2 12 2Zm2.481 15H9.519l.103.454.043.152.057.143c.288.646.902 1.05 1.587 1.05h1.382l.156-.009.15-.023.147-.035a1.727 1.727 0 0 0 1.233-1.276l.104-.456ZM12 5.202a5 5 0 0 0-5 5l.008.271.02.256.034.252a4.995 4.995 0 0 0 1.64 2.978l.154.129.321 1.412h5.644l.32-1.41.163-.136a4.995 4.995 0 0 0 1.69-3.497l.006-.255a5 5 0 0 0-5-5Z"/></svg>
